src/assets/user-avatar.svg

<svg xmlns="http://www.w3.org/2000/svg" fill="none" viewBox="0 0 16 16"><rect fill="#fff" style="mix-blend-mode:multiply"/><path fill="#2A254B" d="M8 4a2.49997 2.49997 0 0 0-1.76776 4.26777 2.49998 2.49998 0 0 0 2.72447.54193 2.5002 2.5002 0 0 0 1.12199-.92077A2.50004 2.50004 0 0 0 8 4Zm0 4a1.50004 1.50004 0 0 1-1.47118-1.79264A1.5 1.5 0 0 1 9.5 6.5 1.5017 1.5017 0 0 1 8 8Z"/><path fill="#2A254B" d="M8 1a7 7 0 0 0-6.86549 8.36563 6.99952 6.99952 0 0 0 1.91575 3.58407 6.99981 6.99981 0 0 0 3.58411 1.9158 7.00013 7.00013 0 0 0 4.04443-.3983 7.00098 7.00098 0 0 0 3.1415-2.5782A6.9999 6.9999 0 0 0 15 8c-.0021-1.85587-.7403-3.63514-2.0526-4.94744C11.6351 1.74026 9.85588 1.00209 8 1ZM5 13.1882V12.5a1.50169 1.50169 0 0 1 .43983-1.0602A1.5015 1.5015 0 0 1 6.5 11h3a1.50155 1.50155 0 0 1 1.5 1.5v.6882A5.94853 5.94853 0 0 1 8 14a5.94859 5.94859 0 0 1-3-.8118Zm6.9963-.7253a2.50086 2.50086 0 0 0-.7442-1.7423A2.50046 2.50046 0 0 0 9.5 10h-3a2.50081 2.50081 0 0 0-2.49625 2.4629 6.00003 6.00003 0 0 1-1.60968-6.61407 6 6 0 0 1 9.00953-2.80265 5.99992 5.99992 0 0 1 2.2023 2.80265 5.99934 5.99934 0 0 1 .2239 3.5574 5.9997 5.9997 0 0 1-1.8335 3.05667Z"/></svg>

<svg  viewBox="0 0 16 16" fill="none" xmlns="http://www.w3.org/2000/svg">
<rect  fill="white" style="mix-blend-mode:multiply"/>
<path d="M8 4C7.50555 4 7.0222 4.14662 6.61108 4.42133C6.19995 4.69603 5.87952 5.08648 5.6903 5.54329C5.50108 6.00011 5.45158 6.50277 5.54804 6.98773C5.6445 7.47268 5.88261 7.91814 6.23224 8.26777C6.58187 8.6174 7.02733 8.8555 7.51228 8.95196C7.99723 9.04843 8.4999 8.99892 8.95671 8.8097C9.41353 8.62048 9.80397 8.30005 10.0787 7.88893C10.3534 7.4778 10.5 6.99445 10.5 6.5C10.5 5.83696 10.2366 5.20107 9.76777 4.73223C9.29893 4.26339 8.66304 4 8 4ZM8 8C7.70333 8 7.41332 7.91203 7.16665 7.7472C6.91997 7.58238 6.72772 7.34811 6.61418 7.07403C6.50065 6.79994 6.47095 6.49834 6.52882 6.20736C6.5867 5.91639 6.72956 5.64912 6.93934 5.43934C7.14912 5.22956 7.4164 5.0867 7.70737 5.02882C7.99834 4.97094 8.29994 5.00065 8.57403 5.11418C8.84812 5.22771 9.08239 5.41997 9.24721 5.66664C9.41203 5.91332 9.5 6.20333 9.5 6.5C9.49955 6.89769 9.34137 7.27896 9.06017 7.56016C8.77896 7.84137 8.39769 7.99955 8 8Z" fill="#2A254B"/>
<path d="M8 1C6.61553 1 5.26216 1.41054 4.11101 2.17971C2.95987 2.94888 2.06266 4.04213 1.53285 5.32122C1.00303 6.6003 0.86441 8.00776 1.13451 9.36563C1.4046 10.7235 2.07129 11.9708 3.05026 12.9497C4.02922 13.9287 5.2765 14.5954 6.63437 14.8655C7.99224 15.1356 9.3997 14.997 10.6788 14.4672C11.9579 13.9373 13.0511 13.0401 13.8203 11.889C14.5895 10.7378 15 9.38447 15 8C14.9979 6.14413 14.2597 4.36486 12.9474 3.05256C11.6351 1.74026 9.85588 1.00209 8 1ZM5 13.1882V12.5C5.00044 12.1023 5.15862 11.721 5.43983 11.4398C5.72104 11.1586 6.10231 11.0004 6.5 11H9.5C9.89769 11.0004 10.279 11.1586 10.5602 11.4398C10.8414 11.721 10.9996 12.1023 11 12.5V13.1882C10.0896 13.7199 9.05426 14 8 14C6.94574 14 5.91042 13.7199 5 13.1882ZM11.9963 12.4629C11.9863 11.807 11.7191 11.1813 11.2521 10.7206C10.7852 10.2599 10.156 10.0011 9.5 10H6.5C5.84405 10.0011 5.2148 10.2599 4.74786 10.7206C4.28093 11.1813 4.01369 11.807 4.00375 12.4629C3.09703 11.6533 2.45762 10.5873 2.17017 9.40623C1.88272 8.22513 1.9608 6.98457 2.39407 5.84883C2.82734 4.71309 3.59536 3.73573 4.59644 3.04618C5.59751 2.35663 6.78442 1.98741 8 1.98741C9.21558 1.98741 10.4025 2.35663 11.4036 3.04618C12.4046 3.73573 13.1727 4.71309 13.6059 5.84883C14.0392 6.98457 14.1173 8.22513 13.8298 9.40623C13.5424 10.5873 12.903 11.6533 11.9963 12.4629Z" fill="#2A254B"/>
</svg>
